assets/images/script/p-3-mid.svg

<svg fill="none" height="153" viewBox="0 0 341 153" width="341" xmlns="http://www.w3.org/2000/svg"><path d="m22.6544 33.4071c12.7282 3.4108 15.2981 8.039 28.4769 5.4656 7.8517-1.5332 22.1942-4.7432 25.599-13.6335 5.1997-13.577-14.9239-20.90282-24.5113-21.9006-18.749-1.95125-33.6967 4.65973-44.57595 20.351-8.64485 12.4685-6.683125 27.6174 8.91975 32.3433 35.8193 10.8491 72.1536-11.5077 108.3432-7.9771 1.153.1125 9.645.6197 4.496 1.0878-11.107 1.0097-23.829 7.9735-33.2137 13.416-18.4445 10.696-34.719 26.3451-43.2211 46.1214-5.9379 13.812-9.6646 24.957 3.916 35.321 12.4706 9.517 29.3691 5.184 42.4234-.653 25.2974-11.312 46.7584-25.341 65.6294-45.2553 21.916-23.1285 41.88-48.8773 72.301-61.2782 23-9.3759 49.485-11.5903 73.461-5.1489 7.671 2.0607 15.25 4.7 22.771 7.2519 1.526.5176 5.775 1.6497 4.279 2.2481-1.51.6039-4.111.0725-5.729.0725" stroke="#000" stroke-linecap="round" stroke-width="5"/></svg>

<svg width="341" height="153" viewBox="0 0 341 153" fill="none" xmlns="http://www.w3.org/2000/svg">
<path d="M22.6544 33.4071C35.3826 36.8179 37.9525 41.4461 51.1313 38.8727C58.983 37.3395 73.3255 34.1295 76.7303 25.2392C81.93 11.6622 61.8064 4.33638 52.219 3.3386C33.47 1.38735 18.5223 7.99833 7.64305 23.6896C-1.0018 36.1581 0.959925 51.307 16.5628 56.0329C52.3821 66.882 88.7164 44.5252 124.906 48.0558C126.059 48.1683 134.551 48.6755 129.402 49.1436C118.295 50.1533 105.573 57.1171 96.1883 62.5596C77.7438 73.2556 61.4693 88.9047 52.9672 108.681C47.0293 122.493 43.3026 133.638 56.8832 144.002C69.3538 153.519 86.2523 149.186 99.3066 143.349C124.604 132.037 146.065 118.008 164.936 98.0937C186.852 74.9652 206.816 49.2164 237.237 36.8155C260.237 27.4396 286.722 25.2252 310.698 31.6666C318.369 33.7273 325.948 36.3666 333.469 38.9185C334.995 39.4361 339.244 40.5682 337.748 41.1666C336.238 41.7705 333.637 41.2391 332.019 41.2391" stroke="black" stroke-width="5" stroke-linecap="round"/>
</svg>
